X:11
T:Stanmore House. Ru2.011
%%VWML:RutherfordVol2-2249-p6-0
F:http://www.vwml.org/record/RutherfordVol2/2249/p6
B:RUTHERFORD Complete Collection of 200 Country Dances Vol.2; 1759.
Z:vmp.Mike Hicken 2015 www.village-music-project.org.uk
M:C|
Q:1/4=140
K:D
A| FDAF dfec|dBAF GEEG|FDAF dfec|dB AF D/D/DD :|
|: f/g/|(a/g/f/e/ d)f abaf|gefd geeg|(a/g/f/e/ d)f abaf|gefc d/d/d df/g/|
(a/g/f/e/ d)f abaf|gefd geeg|afge fdec| (d/c/B/c/ d)F D/D/DD :|
W:
W: Cast off two Cu: .|  up again :|  cross over two
W: Cu: up again and cast off .|.  swing corners :||
W: lead out sides .||.
T:Hull Hampleford, or... Ru2.012
T:Monster. Ru2.012, The
L:1/8
B:RUTHERFORD Complete Collection of 200 Country Dances Vol.2; 1759.
Z:vmp.Mike Hicken 2015 www.village-music-project.org.uk
N: *  There is no repeat sign shown here in the original but has been added to give the correct repeat.
M:6/8
Q:3/8=110
K:C
g/f/"*"|:"^S:" edc GEG|GEG def|edc GEG|DED def|
edc GEG|faf ege|def edc|ded def "^:S:":|
|: efg gec|gec gec|efg gec|afd afd|
efg gec|gec gec|faf ege|ded def "^:S" :|
W:
W: Cast off and hands round with the 3d Cu: .|  up
W: again and hands round with the 2d Cu: :|  lead
W: down two Cu. cast up and turn .|.  hands round 6 :|.
